components/icons/Backend.svg

<svg width="64" height="64" viewBox="0 0 64 64" fill="none" xmlns="http://www.w3.org/2000/svg">
  <path fill-rule="evenodd" clip-rule="evenodd" d="M32 64C49.6731 64 64 49.6731 64 32C64 14.3269 49.6731 0 32 0C14.3269 0 0 14.3269 0 32C0 49.6731 14.3269 64 32 64ZM43.25 45.125C44.2856 45.125 45.125 44.2855 45.125 43.25C45.125 42.2145 44.2856 41.375 43.25 41.375C42.2145 41.375 41.375 42.2145 41.375 43.25C41.375 44.2855 42.2145 45.125 43.25 45.125ZM36.375 43.25C36.375 42.2145 37.2145 41.375 38.25 41.375C39.2856 41.375 40.125 42.2145 40.125 43.25C40.125 44.2855 39.2856 45.125 38.25 45.125C37.2145 45.125 36.375 44.2855 36.375 43.25ZM41.375 32C41.375 30.9645 42.2145 30.125 43.25 30.125C44.2856 30.125 45.125 30.9645 45.125 32C45.125 33.0355 44.2856 33.875 43.25 33.875C42.2145 33.875 41.375 33.0355 41.375 32ZM36.375 32C36.375 30.9645 37.2145 30.125 38.25 30.125C39.2856 30.125 40.125 30.9645 40.125 32C40.125 33.0355 39.2856 33.875 38.25 33.875C37.2145 33.875 36.375 33.0355 36.375 32ZM51.4971 26.375C51.8272 25.8053 52.0007 25.1584 52 24.5V17C52 14.9289 50.3211 13.25 48.25 13.25H15.75C13.6789 13.25 12 14.9289 12 17V24.5C11.9993 25.1584 12.1728 25.8053 12.503 26.375C12.1728 26.9447 11.9993 27.5916 12 28.25V35.75C11.9993 36.4084 12.1728 37.0553 12.503 37.625C12.1728 38.1947 11.9993 38.8416 12 39.5V47C12 49.0711 13.6789 50.75 15.75 50.75H48.25C50.3211 50.75 52 49.0711 52 47V39.5C52.0007 38.8416 51.8272 38.1947 51.4971 37.625C51.8272 37.0553 52.0007 36.4084 52 35.75V28.25C52.0007 27.5916 51.8272 26.9447 51.4971 26.375ZM48.25 24.5H15.75V17H48.25V24.5ZM15.75 28.25H48.25V35.75H15.75V28.25ZM15.75 39.5H48.25V47H15.75V39.5ZM45.125 20.75C45.125 21.7855 44.2856 22.625 43.25 22.625C42.2145 22.625 41.375 21.7855 41.375 20.75C41.375 19.7145 42.2145 18.875 43.25 18.875C44.2856 18.875 45.125 19.7145 45.125 20.75ZM40.125 20.75C40.125 21.7855 39.2856 22.625 38.25 22.625C37.2145 22.625 36.375 21.7855 36.375 20.75C36.375 19.7145 37.2145 18.875 38.25 18.875C39.2856 18.875 40.125 19.7145 40.125 20.75Z" fill="#0068A7"/>
</svg>

<svg xmlns="http://www.w3.org/2000/svg" viewBox="0 0 64 64">
  <path fill-rule="evenodd" d="M32 64c17.673 0 32-14.327 32-32C64 14.327 49.673 0 32 0 14.327 0 0 14.327 0 32c0 17.673 14.327 32 32 32zm11.25-18.875a1.875 1.875 0 1 0 0-3.75 1.875 1.875 0 0 0 0 3.75zm-6.875-1.875a1.875 1.875 0 1 1 3.75 0 1.875 1.875 0 0 1-3.75 0zm5-11.25a1.875 1.875 0 1 1 3.75 0 1.875 1.875 0 0 1-3.75 0zm-5 0a1.875 1.875 0 1 1 3.75 0 1.875 1.875 0 0 1-3.75 0zm15.122-5.625c.33-.57.504-1.217.503-1.875V17a3.75 3.75 0 0 0-3.75-3.75h-32.5A3.75 3.75 0 0 0 12 17v7.5c0 .658.173 1.305.503 1.875A3.731 3.731 0 0 0 12 28.25v7.5c0 .658.173 1.305.503 1.875A3.731 3.731 0 0 0 12 39.5V47a3.75 3.75 0 0 0 3.75 3.75h32.5A3.75 3.75 0 0 0 52 47v-7.5c0-.658-.173-1.305-.503-1.875.33-.57.504-1.217.503-1.875v-7.5c0-.658-.173-1.305-.503-1.875zM48.25 24.5h-32.5V17h32.5v7.5zm-32.5 3.75h32.5v7.5h-32.5v-7.5zm0 11.25h32.5V47h-32.5v-7.5zm29.375-18.75a1.875 1.875 0 1 1-3.75 0 1.875 1.875 0 0 1 3.75 0zm-5 0a1.875 1.875 0 1 1-3.75 0 1.875 1.875 0 0 1 3.75 0z"/>
</svg>
